X:1
T:Grey Selchie of Sule Skerry
M:3/4
L:1/4
K:C
 z z z/2 C/2| C- D E| D2 _B,| _B,3/2- C/2 D| C3-| C2 E| E2 E| F D2-|\
 D2 D/2F/2| E3| F G A| G2 E| D2 F| E3-| E2 C| D2 C| _B,3-| _B,3/2 B,/2B,/2 C/2|\
 C3|

